X:1     %Music
T:Come Write me Down
B: Purslow, F, (1972), The Constant Lovers, EDFS, London
S:Joseph Elliot, Todber, Dorset. Sept 1905 and Henry Marsh, Dorchester, Jan 1907
Z:Hammond Dt 181/Dt 732.  
F:http://www.folkinfo.org/songs
M:4/4     %Meter
L:1/8     %
K:A
E2 |A2 A2 A2 E2 |(AB) c d e2 
w:Come, write me down you pow-*ers a-bove, 
c2 |(B3/2A/) (Bc) (dc) (BA) |G2 F2 E2
w:The man_ that_ first_ cre-*a-ted love, 
 E2 |F2 G3/2 G/ A A B2 |c2 f2 e3
w: For I have a jew-el all in my eyes
 d |c3 B c2 [e2A2] |[B2F2] [B2G2] A2 z2 |]
w: Where all my joy and fan-cy lies.  